icons/chevron-circle-down.svg

<svg width="24" height="24" viewBox="0 0 24 24" fill="none" xmlns="http://www.w3.org/2000/svg">
<path fill-rule="evenodd" clip-rule="evenodd" d="M20.25 12C20.25 7.44365 16.5563 3.75 12 3.75C7.44365 3.75 3.75 7.44365 3.75 12C3.75 16.5563 7.44365 20.25 12 20.25C16.5563 20.25 20.25 16.5563 20.25 12ZM12 2.25C17.3848 2.25 21.75 6.61522 21.75 12C21.75 17.3848 17.3848 21.75 12 21.75C6.61522 21.75 2.25 17.3848 2.25 12C2.25 6.61522 6.61522 2.25 12 2.25Z" fill="black"/>
<path fill-rule="evenodd" clip-rule="evenodd" d="M7.81965 9.75715C8.11254 9.46425 8.58741 9.46425 8.88031 9.75715L12 12.8768L15.1196 9.75715C15.4125 9.46425 15.8874 9.46425 16.1803 9.75715C16.4732 10.05 16.4732 10.5249 16.1803 10.8178L12.9803 14.0178C12.7155 14.2826 12.3577 14.4625 11.9625 14.4625C11.5794 14.4625 11.2195 14.2902 10.978 13.9761L7.81965 10.8178C7.52675 10.5249 7.52675 10.05 7.81965 9.75715ZM11.8992 12.9743C11.8992 12.9743 11.8997 12.9739 11.9008 12.9734L11.8992 12.9743Z" fill="black"/>
</svg>

<svg xmlns="http://www.w3.org/2000/svg" fill="none" viewBox="0 0 24 24">
  <path fill="#000" fill-rule="evenodd" d="M20.25 12a8.25 8.25 0 1 0-16.5 0 8.25 8.25 0 0 0 16.5 0ZM12 2.25c5.385 0 9.75 4.365 9.75 9.75s-4.365 9.75-9.75 9.75S2.25 17.385 2.25 12 6.615 2.25 12 2.25Z" clip-rule="evenodd"/>
  <path fill="#000" fill-rule="evenodd" d="M7.82 9.757a.75.75 0 0 1 1.06 0l3.12 3.12 3.12-3.12a.75.75 0 0 1 1.06 1.06l-3.2 3.2a1.45 1.45 0 0 1-1.018.446c-.383 0-.742-.173-.984-.487L7.82 10.818a.75.75 0 0 1 0-1.06Zm4.08 3.217Z" clip-rule="evenodd"/>
</svg>
